X:1
T:Wonderful Message
T:Benjamin Carl Unseld
T:Wonderful Message
T:Public Domain
T:Public Domain
C:Benjamin Carl Unseld
Z:Public Domain
%%score ( 1 2 ) ( 3 4 )
L:1/8
M:6/8
K:G
V:1 treble 
V:2 treble 
V:3 bass 
V:4 bass 
V:1
 [B,D][B,G][B,G] [DB][CA][B,G] | [DA][DB][Dc] [DB]3 | [Dd][Dc][DB] [^CB][CA][CG] | [DA]3- [DA]2 | %4
w: 1.~Tell it to o- thers as|on- ward you go,|Won- der- ful mes- sage of|love; *|
w: 2.~Tell how it bright- ens each|step of the way,|Won- der- ful mes- sage of|love; *|
w: 3.~Sweet- er it seems ev- ery|time it is told,|Won- der- ful mes- sage of|love; *|
 D[DG][DG] [GB][GA][GB] | [Fc][Fd][Fe] [Gd]3 | [Gd][Gc][GB] [FA][FB][DA] | [DG]3- [DG]2 || %8
w: Send it from hearts that with|o- ver- flow, Won-|der- ful mes- sage of love.|Won- *|
w: Tell it to those who from|are a- stray, Won-|der- ful mes- sage of love.||
w: Tell it, till safe in the|ty of gold, Won-|der- ful mes- sage of love.||
"^Refrain" (GGG) (DD)B | [Gd](FF FF) z | (FFF) (DD)c | [Ge](GG GG) z | [Dd][Dc][DB] [^CB][CA][CG] | %13
w: der- * * ful * mes-|ti- ful * * *|sage, * * Sent * by|ther a- * * *|Won- der- ful mes- sage, Life|
w: |||||
w: |||||
 [DA]3- [DA]2 z | (GGG) (GG)d | [Ge](GG GG) z | (GGG) (GG)e | [Ge](GG GG) z | %18
w: giv- *|ing * * mes- * sage,|lous mes- * * *|of * * love. * *||
w: |||||
w: |||||
 [Gd][Gc][GB] [FA][FB][DA] | [DG]3- [DG]2 z |] %20
w: ||
w: ||
w: ||
V:2
 x6 | x6 | x6 | x5 | D x5 | x6 | x6 | x5 || B3 G2 x | x c2- c2 x | c3 A2 x | x d2- d2 x | x6 | x6 | %14
w: ||||joy||||sage, beau-|mes- *|the Fa-|bove; *|||
w: ||||God||||||||||
w: ||||ci-||||||||||
 d3 B2 x | x d2- d2 x | e3 c2 x | x d2- d2 x | x6 | x6 |] %20
w: Mar- ve-|sage *|||||
w: ||||||
w: ||||||
V:3
 G,G,G, G,G,G, | [D,F,][D,G,][D,A,] G,3 | [F,A,][G,A,]G, [E,G,][E,A,][E,A,] | [D,F,]3- [D,F,]2 | %4
w: ~ ~ ~ ~ ~ ~|~ ~ ~ ~|~ ~ ~ ~ ~ ~|~ *|
 [G,B,][G,B,][G,B,] [G,D][G,C][G,B,] | [D,A,][D,B,][D,C] [G,B,]3 | %6
w: ~ ~ ~ ~ ~ ~|~ ~ ~ Won-|
 [D,B,][D,A,][D,G,] [D,C][D,D][D,C] | [G,B,]3- [G,B,]2 || G,G,G, G,(G,G,) | [D,B,]D,D, D,D, z | %10
w: der- ful mes- sage, beau- tiful|mes- *|sage, Wond- er- ful mes- *|tiful mes- sage, ~ ~|
 D,D,D, D,(D,A,) | [G,C]G,G, G,G, z | [G,B,][G,A,]G, [E,G,][E,A,][E,A,] | [D,F,]3- [D,F,]2 z | %14
w: ~ ~ ~ ~ Won- *|mes- sage, life giving mes-|Won- der- ful mes- sage, life|mes- *|
 G,G,G, G,(G,B,) | [G,C]G,G, G,G, z | C,C,C, C,(C,C) | [G,C]G,G, G,G, z | %18
w: sage, * * * * *||||
 [D,B,][D,A,][D,G,] [D,C][D,D][D,C] | [G,B,]3- [G,B,]2 z |] %20
w: ||
V:4
 G,G,G, G,G,G, | x3 G,3 | x2 G, x3 | x5 | x6 | x6 | x6 | x5 || D3 B,2 x | x A,2- A,2 x | %10
w: ~ ~ ~ ~ ~ ~|~|~||||||sgae, beau-|~ *|
 A,3 F,2 x | x B,2- B,2 x | x2 G, x3 | x6 | B,3 G,2 x | x B,2- B,2 x | C3 E2 x | x B,2- B,2 x | %18
w: der- ful|sage, *|giving||||||
 x6 | x6 |] %20
w: ||

